public/assets/images/home/features-section/icons/icon-4.svg

<svg id="eQUnM1Arjed1" xmlns="http://www.w3.org/2000/svg" xmlns:xlink="http://www.w3.org/1999/xlink" viewBox="0 0 61 60" shape-rendering="geometricPrecision" text-rendering="geometricPrecision" project-id="b1835a14c77d4a3283efc53043de0d21" export-id="d14d8c354cac48d39c9336ff25e8ba8a" cached="false">
<style><![CDATA[
#eQUnM1Arjed2_to {animation: eQUnM1Arjed2_to__to 3000ms linear infinite normal forwards}@keyframes eQUnM1Arjed2_to__to { 0% {transform: translate(30.4708px,18.016495px)} 33.333333% {transform: translate(30.4708px,13.016495px)} 100% {transform: translate(30.4708px,13.016495px)}} #eQUnM1Arjed3_to {animation: eQUnM1Arjed3_to__to 3000ms linear infinite normal forwards}@keyframes eQUnM1Arjed3_to__to { 0% {transform: translate(30.474501px,33.964451px)} 33.333333% {transform: translate(30.474501px,28.964451px)} 100% {transform: translate(30.474501px,28.964451px)}} #eQUnM1Arjed4_ts {animation: eQUnM1Arjed4_ts__ts 3000ms linear infinite normal forwards}@keyframes eQUnM1Arjed4_ts__ts { 0% {transform: translate(11.543755px,48.7736px) scale(0.5,0.5)} 33.333333% {transform: translate(11.543755px,48.7736px) scale(1,1)} 100% {transform: translate(11.543755px,48.7736px) scale(1,1)}} #eQUnM1Arjed4 {animation: eQUnM1Arjed4_c_o 3000ms linear infinite normal forwards}@keyframes eQUnM1Arjed4_c_o { 0% {opacity: 0} 16.666667% {opacity: 1} 100% {opacity: 1}} #eQUnM1Arjed5_ts {animation: eQUnM1Arjed5_ts__ts 3000ms linear infinite normal forwards}@keyframes eQUnM1Arjed5_ts__ts { 0% {transform: translate(49.457851px,48.7736px) scale(0.5,0.5)} 33.333333% {transform: translate(49.457851px,48.7736px) scale(1,1)} 100% {transform: translate(49.457851px,48.7736px) scale(1,1)}} #eQUnM1Arjed5 {animation: eQUnM1Arjed5_c_o 3000ms linear infinite normal forwards}@keyframes eQUnM1Arjed5_c_o { 0% {opacity: 0} 33.333333% {opacity: 0} 50% {opacity: 1} 100% {opacity: 1}} #eQUnM1Arjed6_ts {animation: eQUnM1Arjed6_ts__ts 3000ms linear infinite normal forwards}@keyframes eQUnM1Arjed6_ts__ts { 0% {transform: translate(30.5008px,40.689099px) scale(0.5,0.5)} 33.333333% {transform: translate(30.5008px,40.689099px) scale(1,1)} 100% {transform: translate(30.5008px,40.689099px) scale(1,1)}} #eQUnM1Arjed6 {animation: eQUnM1Arjed6_c_o 3000ms linear infinite normal forwards}@keyframes eQUnM1Arjed6_c_o { 0% {opacity: 0} 16.666667% {opacity: 0} 33.333333% {opacity: 1} 100% {opacity: 1}}
]]></style>
<g id="eQUnM1Arjed2_to" transform="translate(30.4708,18.016495)"><path d="M30.4708,23.5679c5.7548,0,10.42-4.724,10.42-10.5514s-4.6652-10.55141-10.42-10.55141-10.42,4.72402-10.42,10.55141s4.6652,10.5514,10.42,10.5514Z" transform="translate(-30.4708,-13.016495)" fill="none" stroke="#00aeef" stroke-width="2" stroke-linecap="round" stroke-linejoin="round"/></g><g id="eQUnM1Arjed3_to" transform="translate(30.474501,33.964451)"><path d="M11.9023,34.3393c3.7308-6.4432,10.6485-10.7717,18.5668-10.7717s14.8468,4.3395,18.5776,10.7937" transform="translate(-30.474501,-28.964451)" fill="none" stroke="#00aeef" stroke-width="2" stroke-linecap="round" stroke-linejoin="round"/></g><g id="eQUnM1Arjed4_ts" transform="translate(11.543755,48.7736) scale(0.5,0.5)"><path id="eQUnM1Arjed4" d="M11.5383,40.012l2.1536,6.6965h6.9503l-5.6233,4.1302l2.1428,6.6965-5.6234-4.1412-5.62328,4.1412l2.15361-6.6965-5.62332-4.1302h6.95029l2.1427-6.6965Z" transform="translate(-11.543755,-48.7736)" opacity="0" fill="none" stroke="#00aeef" stroke-width="1.5" stroke-linecap="round" stroke-linejoin="round"/></g><g id="eQUnM1Arjed5_ts" transform="translate(49.457851,48.7736) scale(0.5,0.5)"><path id="eQUnM1Arjed5" d="M49.4524,40.012l2.1536,6.6965h6.9503L52.933,50.8387l2.1427,6.6965-5.6233-4.1412-5.6233,4.1412l2.1536-6.6965-5.6233-4.1302h6.9503l2.1427-6.6965Z" transform="translate(-49.457851,-48.7736)" opacity="0" fill="none" stroke="#00aeef" stroke-width="1.5" stroke-linecap="round" stroke-linejoin="round"/></g><g id="eQUnM1Arjed6_ts" transform="translate(30.5008,40.689099) scale(0.5,0.5)"><path id="eQUnM1Arjed6" d="M30.4954,31.9275L32.649,38.613h6.9503l-5.6234,4.1412l2.1428,6.6965-5.6233-4.1412-5.6233,4.1412l2.1536-6.6965-5.6234-4.1412h6.9503l2.1428-6.6855Z" transform="translate(-30.5008,-40.689099)" opacity="0" fill="none" stroke="#00aeef" stroke-width="1.5" stroke-linecap="round" stroke-linejoin="round"/></g></svg>

<svg width="61" height="60" viewBox="0 0 61 60" fill="none" xmlns="http://www.w3.org/2000/svg">
<path d="M30.4708 23.5679C36.2256 23.5679 40.8908 18.8439 40.8908 13.0165C40.8908 7.18911 36.2256 2.46509 30.4708 2.46509C24.716 2.46509 20.0508 7.18911 20.0508 13.0165C20.0508 18.8439 24.716 23.5679 30.4708 23.5679Z" stroke="#00AEEF" stroke-width="2" stroke-linecap="round" stroke-linejoin="round"/>
<path d="M11.9023 34.3393C15.6331 27.8961 22.5508 23.5676 30.4691 23.5676C38.3874 23.5676 45.3159 27.9071 49.0467 34.3613" stroke="#00AEEF" stroke-width="2" stroke-linecap="round" stroke-linejoin="round"/>
<path d="M11.5383 40.012L13.6919 46.7085H20.6422L15.0189 50.8387L17.1617 57.5352L11.5383 53.394L5.91502 57.5352L8.06863 50.8387L2.44531 46.7085H9.3956L11.5383 40.012Z" stroke="#00AEEF" stroke-width="1.5" stroke-linecap="round" stroke-linejoin="round"/>
<path d="M49.4524 40.012L51.606 46.7085H58.5563L52.933 50.8387L55.0757 57.5352L49.4524 53.394L43.8291 57.5352L45.9827 50.8387L40.3594 46.7085H47.3097L49.4524 40.012Z" stroke="#00AEEF" stroke-width="1.5" stroke-linecap="round" stroke-linejoin="round"/>
<path d="M30.4954 31.9275L32.649 38.613H39.5993L33.9759 42.7542L36.1187 49.4507L30.4954 45.3095L24.8721 49.4507L27.0257 42.7542L21.4023 38.613H28.3526L30.4954 31.9275Z" stroke="#00AEEF" stroke-width="1.5" stroke-linecap="round" stroke-linejoin="round"/>
</svg>
